X:07
T: Moshe Emes
C: trad. Hassidic (Klezmer)
S: Seth Austin to CoMandoList TOW
I: D Freygish (Phrygian) mode
L: 1/8
Q: 240
M: 2/4
K: G
"Pt A"\
|: "D"F3/2_E/ DD | DD D2 | FG A_B | AG A2 \
| F3/2_E/ DD | "D"DD D2 | "Cm"FG F3/2_E/ | "D"_ED z2 :|
"Pt B"\
|: "D"F2 "Gm"G2 | "D"FA "Gm"G2 | "D"FG A_B | AG A2 \
| "D"F2 "Gm"G2 | "D"FA "Gm"G2 | "Cm"FG F3/2_E/ | "D"_ED z2 :|
"Pt C"\
|: "Gm"[_B4D4G,4] | "D"[A4D4] | "Gm"[G3/2G,3/2]F/ G3/2F/ | GA _B/A/G \
| "Gm"[_B4D4G,4] | "D"[A4D4] | "Cm"G3/2F/ G3/2F/ | "D"GF z2 :|
"Pt D"\
|: "D"F2 "Gm"G2 | "D"FA "Gm"G2 | "D"FG A_B | AG A2 \
| "D"F2 "Gm"G2 | "D"FA "Gm"G2 | "Cm"FG F3/2_E/ | "D"_ED z2 :|
